X:1
T:Royapettah, 76.76 D
T:Royapettah, 76.76 D
T:E. G. Masters, 1897
T:Public Domain Courtesy of the Cyber Hymnal™
C:E. G. Masters, 1897
Z:Public Domain
Z:Courtesy of the Cyber Hymnal™
%%score ( 1 2 ) ( 3 4 )
L:1/8
Q:1/4=115
M:4/4
K:Ab
V:1 treble 
V:2 treble 
V:3 bass 
V:4 bass 
V:1
 [CE]2 | [Ec]2 [Ec]2 [CA]2 [CA]2 | [DB]2 [DA]4 [DF]2 | [CE]2 [CA]2 [CA]2 [Ec]2 | [EB]6 [Ed]2 | %5
 [Ec]2 [Ec]2 [DB]2 [Ec]2 | [FA]2 [DF]4 [DF]2 | [CE]2 [CA]2 [DG]2 [DB]2 | [CA]6 [CA]2 | %9
 [DB]2 [DB]2 [CA]2 [DB]2 | [Ec]2 [Ec]4 [Ec]2 | [Fd]2 [DF]2 [=DG]2 [DF]2 | E6 E2 | %13
 [Ec]2 [Ec]2 [DB]2 [Ec]2 | [_Ge]2 [Fd]4 [_Fc]2 | [EB]2 [CA]2 [Ec]2 [DB]2 | [CA]6 |] %17
V:2
 x2 | x8 | x8 | x8 | x8 | x8 | x8 | x8 | x8 | x8 | x8 | x8 | E6 E2 | x8 | x8 | x8 | x6 |] %17
V:3
 [A,,A,]2 | [A,,A,]2 [A,,A,]2 [A,,E,]2 [A,,E,]2 | [D,F,]2 [D,F,]4 [D,A,]2 | %3
 [A,,A,]2 [A,,A,]2 [A,,A,]2 [A,,A,]2 | [E,G,]6 [G,B,]2 | A,2 [A,,A,]2 [A,,A,]2 [A,,A,]2 | %6
 [D,A,]2 [D,A,]4 [D,A,]2 | [E,A,]2 [E,A,]2 [E,B,]2 [E,G,]2 | [A,,A,]6 [A,,A,]2 | %9
 [E,G,]2 [E,G,]2 [F,A,]2 [E,G,]2 | A,2 A,4 A,2 | [D,A,]2 [D,A,]2 [B,,B,]2 [B,,A,]2 | %12
 [E,G,]6 [E,G,]2 | [A,,A,]2 [A,,A,]2 [A,,A,]2 [A,,A,]2 | [D,A,]2 [D,A,]4 [D,A,]2 | %15
 [E,G,]2 [E,G,]2 [E,A,]2 [E,G,]2 | [A,,A,]6 |] %17
V:4
 x2 | x8 | x8 | x8 | x8 | A,2 x6 | x8 | x8 | x8 | x8 | A,2 A,4 A,2 | x8 | x8 | x8 | x8 | x8 | x6 |] %17

